components/ui-node-icon/src/csvOutput/csvOutput.large.svg

<svg width="32" height="32" viewBox="0 0 32 32" fill="none" xmlns="http://www.w3.org/2000/svg">
  <path fill-rule="evenodd" clip-rule="evenodd" d="M9 3C6.79086 3 5 4.79086 5 7V25C5 27.2091 6.79086 29 9 29H20.6822C21.6325 29.6318 22.7733 30 24 30C27.3137 30 30 27.3137 30 24C30 21.7792 28.7934 19.8401 27 18.8027L27 9.00001L21 3.00001H23.0079L23 3H9ZM23.3351 14.0841L22.051 18.3236C21.3885 18.5511 20.7784 18.8912 20.2435 19.3212L18.6609 14.0841H19.9025L20.992 18.2857L22.0935 14.0841H23.3351ZM13.0654 18.8825C13.1749 18.6475 13.239 18.3832 13.2577 18.0895H12.1322C12.1135 18.4393 12.0187 18.6929 11.8478 18.8505C11.6769 19.0053 11.4446 19.0828 11.1509 19.0828C10.8011 19.0828 10.5447 18.9453 10.3818 18.6702C10.2216 18.3952 10.1415 17.9706 10.1415 17.3965V16.6035C10.1415 16.3364 10.1615 16.0988 10.2016 15.8905C10.2417 15.6796 10.3031 15.502 10.3858 15.3578C10.4713 15.2136 10.5781 15.1041 10.7063 15.0294C10.8344 14.9546 10.9853 14.9172 11.1589 14.9172C11.3244 14.9172 11.466 14.9399 11.5834 14.9853C11.7036 15.028 11.8024 15.0935 11.8798 15.1816C11.9599 15.267 12.02 15.3752 12.0601 15.506C12.1028 15.6368 12.1295 15.7891 12.1402 15.9626H13.2617C13.235 15.6582 13.1709 15.3845 13.0694 15.1415C12.968 14.8985 12.8291 14.6929 12.6529 14.5247C12.4766 14.3565 12.263 14.227 12.012 14.1362C11.7637 14.0454 11.4793 14 11.1589 14C10.8278 14 10.5287 14.0641 10.2617 14.1923C9.99733 14.3178 9.7717 14.4953 9.58478 14.725C9.39786 14.9546 9.25367 15.2296 9.1522 15.5501C9.05073 15.8705 9 16.2243 9 16.6115V17.3965C9 17.781 9.04806 18.1335 9.14419 18.4539C9.24032 18.7744 9.37917 19.0494 9.56075 19.279C9.74232 19.506 9.96662 19.6836 10.2336 19.8117C10.5007 19.9373 10.8064 20 11.1509 20C11.4553 20 11.733 19.9559 11.984 19.8678C12.235 19.777 12.4513 19.6489 12.6328 19.4833C12.8144 19.3178 12.9586 19.1175 13.0654 18.8825ZM17.1068 18.1015C17.1442 18.1923 17.1629 18.2897 17.1629 18.3939C17.1629 18.498 17.1415 18.5941 17.0988 18.6822C17.0561 18.7677 16.9947 18.8411 16.9146 18.9025C16.8344 18.964 16.7356 19.012 16.6182 19.0467C16.5033 19.0814 16.3712 19.0988 16.2216 19.0988C16.0534 19.0988 15.8985 19.0801 15.757 19.0427C15.6182 19.0053 15.498 18.9466 15.3965 18.8665C15.2977 18.7864 15.2203 18.6836 15.1642 18.5581C15.1081 18.4326 15.0774 18.2817 15.0721 18.1055H13.9666C13.9666 18.3191 13.996 18.514 14.0547 18.6903C14.1162 18.8665 14.1989 19.024 14.3031 19.1629C14.4099 19.3017 14.5354 19.4232 14.6796 19.5274C14.8238 19.6315 14.9786 19.7183 15.1442 19.7877C15.3124 19.8571 15.4873 19.9079 15.6689 19.9399C15.8531 19.9746 16.0374 19.992 16.2216 19.992C16.518 19.992 16.7917 19.9573 17.0427 19.8879C17.2937 19.8158 17.51 19.7116 17.6916 19.5754C17.8732 19.4366 18.0147 19.2684 18.1162 19.0708C18.2203 18.8705 18.2724 18.6422 18.2724 18.3858C18.2724 18.1455 18.227 17.9279 18.1362 17.733C18.0481 17.5354 17.9226 17.3605 17.7597 17.2083C17.5995 17.0534 17.4072 16.9199 17.1829 16.8077C16.9586 16.6956 16.713 16.6008 16.4459 16.5234C16.259 16.4726 16.0908 16.4179 15.9413 16.3591C15.7944 16.3004 15.6689 16.2363 15.5648 16.1669C15.4606 16.0948 15.3805 16.0147 15.3244 15.9266C15.271 15.8385 15.2443 15.7397 15.2443 15.6302C15.2443 15.526 15.2644 15.4299 15.3044 15.3418C15.3471 15.251 15.4085 15.1736 15.4887 15.1095C15.5688 15.0427 15.6662 14.992 15.781 14.9573C15.8985 14.9199 16.032 14.9012 16.1816 14.9012C16.3445 14.9012 16.486 14.9239 16.6061 14.9693C16.729 15.012 16.8304 15.0734 16.9105 15.1535C16.9933 15.231 17.0547 15.3244 17.0948 15.4339C17.1375 15.5434 17.1615 15.6636 17.1669 15.7944H18.2644C18.2644 15.5327 18.2136 15.2924 18.1121 15.0734C18.0107 14.8545 17.8692 14.6662 17.6876 14.5087C17.506 14.3485 17.2884 14.2243 17.0347 14.1362C16.7837 14.0481 16.506 14.004 16.2016 14.004C15.9079 14.004 15.6355 14.0427 15.3845 14.1202C15.1335 14.1949 14.9159 14.3031 14.7316 14.4446C14.5474 14.5861 14.4032 14.757 14.2991 14.9573C14.1949 15.1575 14.1429 15.3805 14.1429 15.6262C14.1429 15.8798 14.1949 16.1041 14.2991 16.2991C14.4059 16.494 14.5474 16.6649 14.7236 16.8117C14.8999 16.9586 15.1028 17.0841 15.3324 17.1883C15.5648 17.2924 15.8077 17.3792 16.0614 17.4486C16.2697 17.5047 16.4433 17.5661 16.5821 17.6328C16.7236 17.6969 16.8371 17.769 16.9226 17.8491C17.0107 17.9266 17.0721 18.0107 17.1068 18.1015ZM24 29C26.7614 29 29 26.7614 29 24C29 21.2386 26.7614 19 24 19C21.2386 19 19 21.2386 19 24C19 26.7614 21.2386 29 24 29ZM24.5 21.5C24.5 21.2239 24.2761 21 24 21C23.7239 21 23.5 21.2239 23.5 21.5V25.7929L22.3536 24.6464C22.1583 24.4512 21.8417 24.4512 21.6464 24.6464C21.4512 24.8417 21.4512 25.1583 21.6464 25.3536L23.6464 27.3536C23.8417 27.5488 24.1583 27.5488 24.3536 27.3536L26.3536 25.3536C26.5488 25.1583 26.5488 24.8417 26.3536 24.6464C26.1583 24.4512 25.8417 24.4512 25.6464 24.6464L24.5 25.7929V21.5Z" fill="var(--tbl--colors--icons--transformation--primary)"/>
  <path d="M21 7V3L27 9H23C21.8954 9 21 8.10457 21 7Z" fill="white" fill-opacity="0.5"/>
</svg>

<svg xmlns="http://www.w3.org/2000/svg" width="32" height="32" fill="none" viewBox="0 0 32 32">
  <path fill="var(--tbl--colors--icons--transformation--primary)" fill-rule="evenodd" d="M9 3a4 4 0 0 0-4 4v18a4 4 0 0 0 4 4h11.682A6 6 0 1 0 27 18.803V9l-6-6h2.008H9Zm14.335 11.084-1.284 4.24a5.99 5.99 0 0 0-1.807.997l-1.583-5.237h1.241l1.09 4.202 1.101-4.202h1.242Zm-10.27 4.799c.11-.235.174-.5.193-.793h-1.126c-.018.35-.113.603-.284.76-.171.155-.403.233-.697.233-.35 0-.606-.138-.77-.413-.16-.275-.24-.7-.24-1.274v-.793c0-.267.02-.504.06-.713.04-.21.102-.388.185-.532a.901.901 0 0 1 .32-.329.882.882 0 0 1 .453-.112c.165 0 .307.023.424.068.12.043.22.109.297.197.08.085.14.193.18.324.043.13.07.283.08.457h1.122a2.743 2.743 0 0 0-.193-.821 1.797 1.797 0 0 0-.416-.617 1.803 1.803 0 0 0-.641-.389 2.475 2.475 0 0 0-.853-.136c-.331 0-.63.064-.897.192a1.93 1.93 0 0 0-.677.533c-.187.23-.331.505-.433.825-.101.32-.152.674-.152 1.061v.785c0 .385.048.738.144 1.058.096.32.235.595.417.825.181.227.406.405.673.533.267.125.572.188.917.188.304 0 .582-.044.833-.132a1.822 1.822 0 0 0 1.081-.985Zm4.042-.781a.76.76 0 0 1 .056.292c0 .104-.021.2-.064.288a.63.63 0 0 1-.184.22.902.902 0 0 1-.297.145 1.373 1.373 0 0 1-.396.052c-.169 0-.324-.019-.465-.056a.99.99 0 0 1-.36-.177.82.82 0 0 1-.233-.308 1.194 1.194 0 0 1-.092-.453h-1.105c0 .214.029.409.088.585.061.176.144.334.248.473.107.139.232.26.377.364a2.329 2.329 0 0 0 .989.413c.184.035.368.052.553.052.296 0 .57-.035.82-.104.252-.072.468-.176.65-.313a1.48 1.48 0 0 0 .424-.504c.104-.2.156-.429.156-.685 0-.24-.045-.458-.136-.653a1.61 1.61 0 0 0-.376-.525 2.306 2.306 0 0 0-.577-.4 4.36 4.36 0 0 0-.737-.285 4.886 4.886 0 0 1-.505-.164 2.053 2.053 0 0 1-.376-.192.856.856 0 0 1-.24-.24.56.56 0 0 1-.08-.297.646.646 0 0 1 .244-.52.82.82 0 0 1 .292-.153 1.32 1.32 0 0 1 .4-.056 1.2 1.2 0 0 1 .425.068.788.788 0 0 1 .489.465c.043.11.067.23.072.36h1.097a1.666 1.666 0 0 0-.577-1.286c-.181-.16-.399-.284-.652-.372a2.502 2.502 0 0 0-.833-.132c-.294 0-.567.039-.818.116a1.994 1.994 0 0 0-.652.325 1.531 1.531 0 0 0-.433.512c-.104.2-.156.423-.156.67 0 .253.052.477.156.672.107.195.248.366.425.513.176.147.379.272.608.376.233.104.476.191.73.26.208.057.381.118.52.185.142.064.255.136.34.216.089.078.15.162.185.253ZM24 29a5 5 0 1 0 0-10 5 5 0 0 0 0 10Zm.5-7.5a.5.5 0 0 0-1 0v4.293l-1.146-1.147a.5.5 0 0 0-.708.708l2 2a.5.5 0 0 0 .708 0l2-2a.5.5 0 0 0-.708-.708L24.5 25.793V21.5Z" clip-rule="evenodd"/>
  <path fill="#fff" fill-opacity=".5" d="M21 7V3l6 6h-4a2 2 0 0 1-2-2Z"/>
</svg>
